resources/static/img/icons/square.svg

<?xml version="1.0" encoding="UTF-8" standalone="no"?>
<svg
   xmlns:dc="http://purl.org/dc/elements/1.1/"
   xmlns:cc="http://creativecommons.org/ns#"
   xmlns:rdf="http://www.w3.org/1999/02/22-rdf-syntax-ns#"
   xmlns:svg="http://www.w3.org/2000/svg"
   xmlns="http://www.w3.org/2000/svg"
   style="fill:none"
   id="svg19"
   version="1.1"
   viewBox="0 0 45.146458 46"
   height="46"
   width="45.146458">
  <metadata
     id="metadata23">
    <rdf:RDF>
      <cc:Work
         rdf:about="">
        <dc:format>image/svg+xml</dc:format>
        <dc:type
           rdf:resource="http://purl.org/dc/dcmitype/StillImage" />
      </cc:Work>
    </rdf:RDF>
  </metadata>
  <g
     transform="translate(-0.494141)"
     id="g12"
     clip-path="url(#clip0)">
    <path
       style="fill:#395781"
       id="path2"
       d="M 3.55811,26.6654 24.3372,5.88831 27.8007,9.35215 7.02155,30.1293 Z" />
    <path
       style="fill:#395781"
       id="path4"
       d="M 0.494141,33.1934 5.59167,31.0089 2.67942,28.0958 Z" />
    <path
       style="fill:#395781"
       id="path6"
       d="m 32.9941,4.15614 c 0.9557,-0.95614 0.9557,-2.50612 0,-3.462653 -0.9693,-0.924649 -2.4942,-0.924649 -3.4635,0 l -1.7313,1.731323 3.4635,3.46345 z" />
    <path
       style="fill:#395781"
       id="path8"
       d="m 25.4912,4.73408 1.1546,-1.15461 3.4627,3.46345 -1.1542,1.15422 z" />
    <path
       style="fill:#395781"
       id="path10"
       d="m 41.5594,11.718 h 4.0812 V 3.07727 L 2.71777,46.0001 H 45.6406 v -3.265 h -4.0812 c -0.4507,0 -0.8162,-0.3654 -0.8162,-0.8162 0,-0.4508 0.3655,-0.8162 0.8162,-0.8162 h 4.0812 v -3.265 h -2.4487 c -0.4507,0 -0.8162,-0.3655 -0.8162,-0.8162 0,-0.4508 0.3655,-0.8163 0.8162,-0.8163 h 2.4487 v -3.265 h -4.0812 c -0.4507,0 -0.8162,-0.3654 -0.8162,-0.8162 0,-0.4508 0.3655,-0.8162 0.8162,-0.8162 h 4.0812 v -3.265 h -2.4487 c -0.4507,0 -0.8162,-0.3655 -0.8162,-0.8162 0,-0.4508 0.3655,-0.8163 0.8162,-0.8163 h 2.4487 v -3.265 h -4.0812 c -0.4507,0 -0.8162,-0.3654 -0.8162,-0.8162 0,-0.4508 0.3655,-0.8162 0.8162,-0.8162 h 4.0812 v -3.265 h -2.4487 c -0.4507,0 -0.8162,-0.3655 -0.8162,-0.8163 0,-0.4507 0.3655,-0.8162 0.8162,-0.8162 h 2.4487 v -3.265 h -4.0812 c -0.4507,0 -0.8162,-0.3654 -0.8162,-0.8162 0,-0.4508 0.3655,-0.8162 0.8162,-0.8162 z m -2.4487,26.9359 c 0,0.4508 -0.3655,0.8163 -0.8162,0.8163 H 20.4531 c -0.33,0 -0.6277,-0.1989 -0.7541,-0.5042 -0.1263,-0.3049 -0.0562,-0.656 0.177,-0.8892 L 37.7174,20.2363 c 0.2335,-0.2336 0.5846,-0.3033 0.8895,-0.177 0.3049,0.1264 0.5038,0.4237 0.5038,0.7541 z" />
  </g>
  <defs
     id="defs17">
    <clipPath
       id="clip0">
      <rect
         style="fill:#ffffff"
         y="0"
         x="0"
         id="rect14"
         height="46"
         width="46" />
    </clipPath>
  </defs>
</svg>

<svg width="46" height="46" viewBox="0 0 46 46" fill="none" xmlns="http://www.w3.org/2000/svg">
<g clip-path="url(#clip0)">
<path d="M3.55811 26.6654L24.3372 5.88831L27.8007 9.35215L7.02155 30.1293L3.55811 26.6654Z" fill="#395781"/>
<path d="M0.494141 33.1934L5.59167 31.0089L2.67942 28.0958L0.494141 33.1934Z" fill="#395781"/>
<path d="M32.9941 4.15614C33.9498 3.2 33.9498 1.65002 32.9941 0.693487C32.0248 -0.231162 30.4999 -0.231162 29.5306 0.693487L27.7993 2.42481L31.2628 5.88826L32.9941 4.15614Z" fill="#395781"/>
<path d="M25.4912 4.73408L26.6458 3.57947L30.1085 7.04292L28.9543 8.19714L25.4912 4.73408Z" fill="#395781"/>
<path d="M41.5594 11.718H45.6406V3.07727L2.71777 46.0001H45.6406V42.7351H41.5594C41.1087 42.7351 40.7432 42.3697 40.7432 41.9189C40.7432 41.4681 41.1087 41.1027 41.5594 41.1027H45.6406V37.8377H43.1919C42.7412 37.8377 42.3757 37.4722 42.3757 37.0215C42.3757 36.5707 42.7412 36.2052 43.1919 36.2052H45.6406V32.9402H41.5594C41.1087 32.9402 40.7432 32.5748 40.7432 32.124C40.7432 31.6732 41.1087 31.3078 41.5594 31.3078H45.6406V28.0428H43.1919C42.7412 28.0428 42.3757 27.6773 42.3757 27.2266C42.3757 26.7758 42.7412 26.4103 43.1919 26.4103H45.6406V23.1453H41.5594C41.1087 23.1453 40.7432 22.7799 40.7432 22.3291C40.7432 21.8783 41.1087 21.5129 41.5594 21.5129H45.6406V18.2479H43.1919C42.7412 18.2479 42.3757 17.8824 42.3757 17.4316C42.3757 16.9809 42.7412 16.6154 43.1919 16.6154H45.6406V13.3504H41.5594C41.1087 13.3504 40.7432 12.985 40.7432 12.5342C40.7432 12.0834 41.1087 11.718 41.5594 11.718V11.718ZM39.1107 38.6539C39.1107 39.1047 38.7452 39.4702 38.2945 39.4702H20.4531C20.1231 39.4702 19.8254 39.2713 19.699 38.966C19.5727 38.6611 19.6428 38.31 19.876 38.0768L37.7174 20.2363C37.9509 20.0027 38.302 19.933 38.6069 20.0593C38.9118 20.1857 39.1107 20.483 39.1107 20.8134V38.6539Z" fill="#395781"/>
</g>
<defs>
<clipPath id="clip0">
<rect width="46" height="46" fill="white"/>
</clipPath>
</defs>
</svg>
